public/images/rafinad-logo.svg

<svg width="133" height="34" viewBox="0 0 133 34" fill="none" xmlns="http://www.w3.org/2000/svg">
<path fill-rule="evenodd" clip-rule="evenodd" d="M28.089 7.51217L15.4309 0.186114C15.0023 -0.062038 14.4758 -0.062038 14.0491 0.186114L1.39089 7.51217L0.764887 7.87505C0.741823 7.88673 0.719 7.8991 0.69645 7.91216L0.690913 7.91586C0.264172 8.16401 0 8.62143 0 9.11588V24.5698C0 25.0644 0.264172 25.5217 0.690913 25.7698L13.3509 33.0978L14.0063 33.4753C14.0198 33.4836 14.0335 33.4918 14.0473 33.4997C14.4759 33.7479 15.0023 33.746 15.4309 33.4979L16.1237 33.096L22.7978 29.2333L27.1637 31.7608C27.7345 32.0923 28.4402 32.0923 29.0111 31.7608L33.8383 28.9663C34.409 28.6348 34.7619 28.0237 34.7619 27.3626V21.7755C34.7619 21.1125 34.4109 20.5013 33.8383 20.1717L29.4746 17.6456V9.11411L29.4744 9.09375C29.4673 8.60709 29.2046 8.15878 28.7836 7.91403L28.089 7.51217ZM26.7018 17.6446V11.5245C25.0659 12.4707 23.7438 13.8204 22.8316 15.4049C21.919 16.9902 21.4146 18.8106 21.4146 20.705V14.5817L16.1238 17.6439V29.8868L21.4128 26.8265V21.7755C21.4128 21.1143 21.7657 20.5032 22.3365 20.1717L26.7018 17.6446ZM26.7018 11.5216V11.5245L26.6908 11.5279L26.7018 11.5216ZM69.8457 27.0243C69.6826 27.0243 69.5439 26.9672 69.4297 26.853C69.3156 26.7388 69.2584 26.6002 69.2584 26.437V16.9174H67.2762C67.1131 16.9174 66.9744 16.8602 66.8603 16.746C66.746 16.6318 66.6889 16.4931 66.6889 16.33V14.8862C66.6889 14.723 66.746 14.5843 66.8603 14.47C66.9744 14.3558 67.1131 14.2988 67.2762 14.2988H69.2584V13.3199C69.2584 11.8353 69.6581 10.734 70.4575 10.0162C71.2569 9.28198 72.4642 8.9149 74.0793 8.9149H75.7678C75.9309 8.9149 76.0696 8.972 76.1839 9.08621C76.298 9.20041 76.3551 9.33909 76.3551 9.50223V10.9461C76.3551 11.1092 76.298 11.2479 76.1839 11.3621C76.0696 11.4763 75.9309 11.5335 75.7678 11.5335H74.2016C73.5654 11.5335 73.1167 11.6884 72.8558 11.9984C72.5947 12.3084 72.4642 12.7897 72.4642 13.4422V14.2988H75.5231C75.6862 14.2988 75.825 14.3558 75.9391 14.47C76.0533 14.5843 76.1104 14.723 76.1104 14.8862V16.33C76.1104 16.4931 76.0533 16.6318 75.9391 16.746C75.825 16.8602 75.6862 16.9174 75.5231 16.9174H72.4642V26.437C72.4642 26.6002 72.4071 26.7388 72.2929 26.853C72.195 26.9672 72.0563 27.0243 71.8769 27.0243H69.8457ZM55.3983 26.7797C56.0999 27.1059 56.8666 27.269 57.6986 27.269C58.6775 27.269 59.4932 27.1059 60.1458 26.7797C60.7983 26.437 61.304 26.0047 61.6629 25.4826V26.437C61.6629 26.6002 61.7201 26.7388 61.8343 26.853C61.9485 26.9672 62.0872 27.0243 62.2503 27.0243H64.2814C64.4609 27.0243 64.5996 26.9672 64.6974 26.853C64.8116 26.7388 64.8687 26.6002 64.8687 26.437V18.7528C64.8687 17.3497 64.4282 16.2158 63.5473 15.3511C62.6663 14.4864 61.2633 14.054 59.3382 14.054C58.1636 14.054 57.1766 14.2498 56.3772 14.6414C55.5778 15.0166 54.9823 15.4653 54.5908 15.9873C54.2155 16.4931 54.0198 16.95 54.0034 17.3578C54.0034 17.521 54.0524 17.6515 54.1503 17.7494C54.2645 17.8473 54.395 17.8962 54.5418 17.8962H56.4506C56.6301 17.8962 56.7524 17.7983 56.8177 17.6025L57.2092 17.2109C57.4213 16.9988 57.6904 16.7949 58.0168 16.5991C58.343 16.4033 58.7754 16.3055 59.3137 16.3055C60.0968 16.3055 60.6678 16.4849 61.0267 16.8439C61.3856 17.2028 61.5651 17.7331 61.5651 18.4345V18.9486L58.2125 19.4379C56.6463 19.6827 55.4146 20.1476 54.5173 20.8329C53.62 21.5181 53.1714 22.4154 53.1714 23.5249C53.1714 24.21 53.3672 24.8381 53.7587 25.4092C54.1666 25.9802 54.7132 26.437 55.3983 26.7797ZM60.7331 24.0388C60.1621 24.626 59.428 24.9197 58.5307 24.9197C57.927 24.9197 57.405 24.7811 56.9645 24.5037C56.5403 24.21 56.3283 23.8021 56.3283 23.2801C56.3283 22.3175 57.2663 21.6893 59.1425 21.3958L61.5895 21.0042V21.4937C61.5895 22.603 61.304 23.4514 60.7331 24.0388ZM44.1139 26.853C44.228 26.9672 44.3667 27.0243 44.5298 27.0243H46.7077C46.8709 27.0243 47.0095 26.9672 47.1238 26.853C47.238 26.7388 47.295 26.6002 47.295 26.437V19.7316C47.295 18.9648 47.5153 18.3612 47.9559 17.9206C48.3963 17.4802 48.9999 17.2599 49.7667 17.2599H51.6999C51.8793 17.2599 52.0181 17.2028 52.1159 17.0886C52.2302 16.9744 52.2872 16.8358 52.2872 16.6726V14.8862C52.2872 14.7067 52.2302 14.5679 52.1159 14.47C52.0181 14.3558 51.8793 14.2988 51.6999 14.2988H50.6721C49.1386 14.2988 47.9639 14.8372 47.1482 15.914V14.9106C47.1482 14.7311 47.0911 14.5843 46.977 14.47C46.8627 14.3558 46.7159 14.2988 46.5365 14.2988H44.5298C44.3667 14.2988 44.228 14.3558 44.1139 14.47C43.9996 14.5843 43.9425 14.7311 43.9425 14.9106V26.437C43.9425 26.6002 43.9996 26.7388 44.1139 26.853ZM78.118 12.0474C78.2322 12.1616 78.3708 12.2186 78.534 12.2186H80.7854C80.9485 12.2186 81.0872 12.1616 81.2014 12.0474C81.3319 11.9332 81.3971 11.7944 81.3971 11.6314V9.84484C81.3971 9.66538 81.34 9.51854 81.2259 9.40434C81.1116 9.29014 80.9648 9.23304 80.7854 9.23304H78.534C78.3708 9.23304 78.2322 9.29014 78.118 9.40434C78.0038 9.51854 77.9467 9.66538 77.9467 9.84484V11.6314C77.9467 11.7944 78.0038 11.9332 78.118 12.0474ZM78.2158 26.853C78.3301 26.9672 78.4688 27.0243 78.6319 27.0243H80.712C80.8751 27.0243 81.0137 26.9672 81.128 26.853C81.2421 26.7388 81.2993 26.6002 81.2993 26.437V14.8862C81.2993 14.723 81.2421 14.5843 81.128 14.47C81.0137 14.3558 80.8751 14.2988 80.712 14.2988H78.6319C78.4688 14.2988 78.3301 14.3558 78.2158 14.47C78.1017 14.5679 78.0446 14.7067 78.0446 14.8862V26.437C78.0446 26.6002 78.1017 26.7388 78.2158 26.853ZM85.1082 27.0243C84.9451 27.0243 84.8064 26.9672 84.6921 26.853C84.578 26.7388 84.5209 26.6002 84.5209 26.437V14.8862C84.5209 14.7067 84.578 14.5679 84.6921 14.47C84.8064 14.3558 84.9451 14.2988 85.1082 14.2988H87.1393C87.3188 14.2988 87.4574 14.3558 87.5554 14.47C87.6695 14.5679 87.7266 14.7067 87.7266 14.8862V15.8894C88.7218 14.6658 90.084 14.054 91.8133 14.054C93.3143 14.054 94.5052 14.5435 95.3862 15.5224C96.2671 16.5012 96.7076 17.8473 96.7076 19.5604V26.437C96.7076 26.6002 96.6504 26.7388 96.5363 26.853C96.4384 26.9672 96.2997 27.0243 96.1203 27.0243H93.9179C93.7547 27.0243 93.6161 26.9672 93.5018 26.853C93.3877 26.7388 93.3305 26.6002 93.3305 26.437V19.7071C93.3305 18.7609 93.094 18.0267 92.6209 17.5046C92.164 16.9662 91.5033 16.697 90.6387 16.697C89.8067 16.697 89.1378 16.9662 88.632 17.5046C88.1263 18.0431 87.8734 18.7772 87.8734 19.7071V26.437C87.8734 26.6002 87.8163 26.7388 87.7022 26.853C87.6043 26.9672 87.4656 27.0243 87.2861 27.0243H85.1082ZM101.21 26.7797C101.912 27.1059 102.679 27.269 103.511 27.269C104.49 27.269 105.305 27.1059 105.958 26.7797C106.611 26.437 107.116 26.0047 107.475 25.4826V26.437C107.475 26.6002 107.532 26.7388 107.647 26.853C107.76 26.9672 107.899 27.0243 108.062 27.0243H110.093C110.273 27.0243 110.412 26.9672 110.51 26.853C110.624 26.7388 110.68 26.6002 110.68 26.437V18.7528C110.68 17.3497 110.24 16.2158 109.359 15.3511C108.478 14.4864 107.075 14.054 105.151 14.054C103.976 14.054 102.989 14.2498 102.189 14.6414C101.39 15.0166 100.794 15.4653 100.403 15.9873C100.028 16.4931 99.8317 16.95 99.8155 17.3578C99.8155 17.521 99.8644 17.6515 99.9623 17.7494C100.076 17.8473 100.207 17.8962 100.354 17.8962H102.263C102.442 17.8962 102.564 17.7983 102.63 17.6025L103.021 17.2109C103.233 16.9988 103.502 16.7949 103.829 16.5991C104.155 16.4033 104.587 16.3055 105.126 16.3055C105.909 16.3055 106.479 16.4849 106.839 16.8439C107.198 17.2028 107.377 17.7331 107.377 18.4345V18.9486L104.025 19.4379C102.458 19.6827 101.227 20.1476 100.329 20.8329C99.4321 21.5181 98.9834 22.4154 98.9834 23.5249C98.9834 24.21 99.1792 24.8381 99.5707 25.4092C99.9785 25.9802 100.525 26.437 101.21 26.7797ZM106.545 24.0388C105.974 24.626 105.24 24.9197 104.343 24.9197C103.739 24.9197 103.217 24.7811 102.776 24.5037C102.352 24.21 102.14 23.8021 102.14 23.2801C102.14 22.3175 103.078 21.6893 104.954 21.3958L107.402 21.0042V21.4937C107.402 22.603 107.116 23.4514 106.545 24.0388ZM118.543 27.269C116.895 27.269 115.63 26.747 114.749 25.7028C113.868 24.6424 113.387 23.2312 113.306 21.4691L113.281 20.6615L113.306 19.8539C113.371 18.1246 113.844 16.7297 114.725 15.6692C115.622 14.5925 116.895 14.054 118.543 14.054C120.108 14.054 121.356 14.5925 122.287 15.6692V10.2364C122.287 10.0569 122.344 9.91826 122.458 9.82037C122.572 9.70617 122.711 9.64906 122.874 9.64906H125.003C125.182 9.64906 125.321 9.70617 125.419 9.82037C125.533 9.91826 125.591 10.0569 125.591 10.2364V26.437C125.591 26.6002 125.533 26.7388 125.419 26.853C125.321 26.9672 125.182 27.0243 125.003 27.0243H123.021C122.858 27.0243 122.719 26.9672 122.604 26.853C122.491 26.7388 122.434 26.6002 122.434 26.437V25.5315C121.536 26.6899 120.24 27.269 118.543 27.269ZM119.472 24.626C120.402 24.626 121.088 24.3323 121.528 23.7451C121.985 23.1414 122.237 22.399 122.287 21.5181C122.302 21.3223 122.311 21.0123 122.311 20.5882C122.311 20.1476 122.302 19.8295 122.287 19.6337C122.254 18.818 122.002 18.1246 121.528 17.5536C121.054 16.9825 120.37 16.697 119.472 16.697C117.727 16.697 116.796 17.7738 116.683 19.9274L116.658 20.6615L116.683 21.3958C116.796 23.5493 117.727 24.626 119.472 24.626ZM128.876 26.853C128.99 26.9672 129.129 27.0243 129.291 27.0243H131.763C131.942 27.0243 132.081 26.9672 132.179 26.853C132.294 26.7388 132.351 26.6002 132.351 26.437V23.9653C132.351 23.8021 132.294 23.6635 132.179 23.5493C132.065 23.4351 131.927 23.378 131.763 23.378H129.291C129.129 23.378 128.99 23.4351 128.876 23.5493C128.762 23.6635 128.704 23.8021 128.704 23.9653V26.437C128.704 26.6002 128.762 26.7388 128.876 26.853Z" fill="black"/>
</svg>

<svg xmlns="http://www.w3.org/2000/svg" width="133" height="34" fill="none"><path fill="#000" fill-rule="evenodd" d="M28.089 7.512 15.431.186a1.375 1.375 0 0 0-1.382 0L1.391 7.512l-.626.363a1.386 1.386 0 0 0-.069.037l-.005.004A1.39 1.39 0 0 0 0 9.116V24.57c0 .494.264.952.69 1.2l12.66 7.328.656.377.041.025c.429.248.955.246 1.384-.002l.693-.402 6.674-3.863 4.366 2.528a1.84 1.84 0 0 0 1.847 0l4.827-2.795c.571-.331.924-.942.924-1.603v-5.587c0-.663-.351-1.275-.924-1.604l-4.363-2.526V9.094a1.39 1.39 0 0 0-.691-1.18l-.695-.402Zm-1.387 10.133v-6.12a10.615 10.615 0 0 0-5.287 9.18v-6.123l-5.291 3.062v12.243l5.289-3.06v-5.052c0-.66.353-1.272.924-1.603l4.365-2.527Zm0-6.123v.002l-.011.004.01-.006Zm43.144 15.502a.566.566 0 0 1-.416-.171.567.567 0 0 1-.172-.416v-9.52h-1.982a.566.566 0 0 1-.416-.171.566.566 0 0 1-.171-.416v-1.444c0-.163.057-.302.171-.416a.566.566 0 0 1 .416-.171h1.982v-.98c0-1.484.4-2.585 1.2-3.303.799-.734 2.006-1.101 3.621-1.101h1.689c.163 0 .302.057.416.171a.567.567 0 0 1 .171.416v1.444a.567.567 0 0 1-.171.416.567.567 0 0 1-.416.171h-1.566c-.637 0-1.085.155-1.346.465-.261.31-.392.792-.392 1.444v.857h3.06c.162 0 .301.057.415.171a.567.567 0 0 1 .171.416v1.444a.566.566 0 0 1-.17.416.566.566 0 0 1-.417.171h-3.059v9.52a.566.566 0 0 1-.171.416.518.518 0 0 1-.416.171h-2.031Zm-14.448-.244c.702.326 1.469.489 2.3.489.98 0 1.795-.163 2.448-.49.652-.342 1.158-.774 1.517-1.296v.954c0 .163.057.302.171.416a.566.566 0 0 0 .416.171h2.031c.18 0 .319-.057.416-.171a.566.566 0 0 0 .172-.416v-7.684c0-1.403-.44-2.537-1.322-3.402-.88-.865-2.284-1.297-4.209-1.297-1.174 0-2.161.196-2.96.587-.8.376-1.396.824-1.787 1.346-.376.506-.571.963-.588 1.37a.53.53 0 0 0 .147.392.584.584 0 0 0 .392.147h1.909c.18 0 .301-.098.367-.294l.391-.391c.212-.212.481-.416.808-.612.326-.196.758-.294 1.297-.294.783 0 1.354.18 1.713.539.359.359.538.89.538 1.59v.515l-3.352.489c-1.567.245-2.798.71-3.696 1.395-.897.685-1.346 1.582-1.346 2.692 0 .685.196 1.313.588 1.884.408.571.954 1.028 1.64 1.37Zm5.335-2.741c-.57.587-1.305.88-2.202.88-.604 0-1.126-.138-1.566-.415-.425-.294-.637-.702-.637-1.224 0-.963.938-1.59 2.814-1.884l2.447-.392v.49c0 1.109-.285 1.957-.856 2.545Zm-16.62 2.814a.566.566 0 0 0 .417.171h2.178a.567.567 0 0 0 .416-.171.566.566 0 0 0 .171-.416v-6.705c0-.767.22-1.37.66-1.811.441-.44 1.045-.661 1.812-.661H51.7c.18 0 .318-.057.416-.171a.566.566 0 0 0 .171-.416v-1.787a.518.518 0 0 0-.171-.416.518.518 0 0 0-.416-.171h-1.028c-1.533 0-2.708.538-3.524 1.615v-1.003a.597.597 0 0 0-.171-.441.596.596 0 0 0-.44-.171H44.53a.566.566 0 0 0-.416.171.596.596 0 0 0-.171.44v11.527c0 .163.057.302.17.416Zm34.005-14.806a.566.566 0 0 0 .416.172h2.251a.566.566 0 0 0 .416-.172.533.533 0 0 0 .196-.416V9.845a.597.597 0 0 0-.171-.44.597.597 0 0 0-.44-.172h-2.252a.566.566 0 0 0-.416.171.596.596 0 0 0-.171.44v1.787c0 .163.057.302.171.416Zm.098 14.806a.567.567 0 0 0 .416.171h2.08a.567.567 0 0 0 .416-.171.567.567 0 0 0 .171-.416v-11.55a.567.567 0 0 0-.171-.417.566.566 0 0 0-.416-.171h-2.08a.567.567 0 0 0-.416.171.519.519 0 0 0-.171.416v11.551c0 .163.057.302.17.416Zm6.892.171a.567.567 0 0 1-.416-.171.567.567 0 0 1-.171-.416v-11.55c0-.18.057-.32.171-.417a.567.567 0 0 1 .416-.171h2.031c.18 0 .318.057.416.171a.519.519 0 0 1 .172.416v1.003c.995-1.223 2.357-1.835 4.086-1.835 1.501 0 2.692.49 3.573 1.468.881.98 1.322 2.325 1.322 4.038v6.877a.567.567 0 0 1-.172.416.518.518 0 0 1-.416.171h-2.202a.567.567 0 0 1-.416-.171.567.567 0 0 1-.171-.416v-6.73c0-.946-.237-1.68-.71-2.202-.457-.539-1.118-.808-1.982-.808-.832 0-1.501.27-2.007.808-.506.538-.759 1.272-.759 2.202v6.73a.567.567 0 0 1-.17.416.518.518 0 0 1-.417.171h-2.178Zm16.102-.244c.702.326 1.469.489 2.301.489.979 0 1.794-.163 2.447-.49.653-.342 1.158-.774 1.517-1.296v.954c0 .163.057.302.172.416a.562.562 0 0 0 .415.171h2.031a.52.52 0 0 0 .417-.171.566.566 0 0 0 .17-.416v-7.684c0-1.403-.44-2.537-1.321-3.402-.881-.865-2.284-1.297-4.208-1.297-1.175 0-2.162.196-2.962.587-.799.376-1.395.824-1.786 1.346-.375.506-.571.963-.588 1.37a.53.53 0 0 0 .147.392.584.584 0 0 0 .392.147h1.909c.179 0 .301-.098.367-.294l.391-.391c.212-.212.481-.416.808-.612.326-.196.758-.294 1.297-.294.783 0 1.353.18 1.713.539.359.359.538.89.538 1.59v.515l-3.352.489c-1.567.245-2.798.71-3.696 1.395-.897.685-1.346 1.582-1.346 2.692 0 .685.196 1.313.588 1.884.407.571.954 1.028 1.639 1.37Zm5.335-2.741c-.571.587-1.305.88-2.202.88-.604 0-1.126-.138-1.567-.415-.424-.294-.636-.702-.636-1.224 0-.963.938-1.59 2.814-1.884l2.448-.392v.49c0 1.109-.286 1.957-.857 2.545Zm11.998 3.23c-1.648 0-2.913-.522-3.794-1.566-.881-1.06-1.362-2.472-1.443-4.234l-.025-.808.025-.807c.065-1.73.538-3.124 1.419-4.185.897-1.077 2.17-1.615 3.818-1.615 1.565 0 2.813.538 3.744 1.615v-5.433c0-.18.057-.318.171-.416a.566.566 0 0 1 .416-.17h2.129c.179 0 .318.056.416.17a.52.52 0 0 1 .172.416v16.201a.568.568 0 0 1-.172.416.519.519 0 0 1-.416.171h-1.982a.57.57 0 0 1-.417-.171.57.57 0 0 1-.17-.416v-.905c-.898 1.158-2.194 1.737-3.891 1.737Zm.929-2.643c.93 0 1.616-.294 2.056-.88.457-.605.709-1.347.759-2.228.015-.196.024-.506.024-.93 0-.44-.009-.759-.024-.954-.033-.816-.285-1.51-.759-2.08-.474-.571-1.158-.857-2.056-.857-1.745 0-2.676 1.077-2.789 3.23l-.025.735.025.734c.113 2.153 1.044 3.23 2.789 3.23Zm9.404 2.227a.566.566 0 0 0 .415.171h2.472a.519.519 0 0 0 .416-.171.564.564 0 0 0 .172-.416v-2.472a.564.564 0 0 0-.172-.416.565.565 0 0 0-.416-.171h-2.472a.566.566 0 0 0-.415.171.568.568 0 0 0-.172.416v2.472c0 .163.058.302.172.416Z" clip-rule="evenodd"/></svg>
